app/dist/common/images/nordic-american-tankers.svg

<svg height="18" width="18" xmlns="http://www.w3.org/2000/svg"><path d="m0 0h18v18h-18z" fill="#f0f3fa"/><path d="m3.05 6.1v5.8l5.95-2.9z" fill="#ef3e42"/><path d="m9.03 9 .5-.25h5.46v.5h-5.44l-.52-.26z" fill="#004990"/><path d="m3.05 11.9 2.32-1.12h-2.32zm0-1.3h2.69l1-.5h-3.68v.5zm11.95-1.84v-2.66l-5.48 2.66h5.47zm-5.46.47 5.46 2.67v-2.67h-5.47z" fill="#ef3e42"/><g fill="#004990"><path d="m14.93 6h-11.93v6h12v-6zm-.93 1v4h-10v-4z"/><path d="m5 10.96-1.95.94v-5.8l1.95.96v3.91z"/></g></svg>

<!-- by TradingView --><svg xmlns="http://www.w3.org/2000/svg" width="18" height="18"><path fill="#F0F3FA" d="M0 0h18v18H0z"/><path d="M3.05 6.1v5.8L9 9 3.05 6.1z" fill="#EF3E42"/><path d="M9.03 9l.5-.25h5.46v.5H9.55l-.52-.26z" fill="#004990"/><path d="M3.05 11.9l2.32-1.12H3.05v1.12zm0-1.3h2.69l1-.5H3.06v.5zM15 8.76V6.1L9.52 8.76h5.47zm-5.46.47L15 11.9V9.23H9.53z" fill="#EF3E42"/><path d="M14.93 6H3v6h12V6h-.07zM14 7v4H4V7h10z" fill="#004990"/><path d="M5 10.96l-1.95.94V6.1L5 7.06v3.91z" fill="#004990"/></svg>
